devices/48/battery.svg

<?xml version="1.0" encoding="UTF-8" standalone="no"?>
<svg
   xmlns:dc="http://purl.org/dc/elements/1.1/"
   xmlns:cc="http://creativecommons.org/ns#"
   xmlns:rdf="http://www.w3.org/1999/02/22-rdf-syntax-ns#"
   xmlns:svg="http://www.w3.org/2000/svg"
   xmlns="http://www.w3.org/2000/svg"
   xmlns:xlink="http://www.w3.org/1999/xlink"
   viewBox="0 0 48 48"
   id="svg2485"
   height="48"
   width="48"
   version="1.0">
  <metadata
     id="metadata71">
    <rdf:RDF>
      <cc:Work
         rdf:about="">
        <dc:format>image/svg+xml</dc:format>
        <dc:type
           rdf:resource="http://purl.org/dc/dcmitype/StillImage" />
        <dc:title />
      </cc:Work>
    </rdf:RDF>
  </metadata>
  <defs
     id="defs2487">
    <linearGradient
       id="linearGradient5126">
      <stop
         offset="0"
         style="stop-color:#ffffff;stop-opacity:1"
         id="stop5128" />
      <stop
         offset="1"
         style="stop-color:#ffffff;stop-opacity:0"
         id="stop5130" />
    </linearGradient>
    <linearGradient
       id="linearGradient5118">
      <stop
         offset="0"
         style="stop-color:#9d9d9d;stop-opacity:1"
         id="stop5120" />
      <stop
         offset="1"
         style="stop-color:#ffffff;stop-opacity:1"
         id="stop5122" />
    </linearGradient>
    <linearGradient
       id="linearGradient4762">
      <stop
         offset="0"
         style="stop-color:#ffffff;stop-opacity:1"
         id="stop4764" />
      <stop
         offset="0.02777778"
         style="stop-color:#ffffff;stop-opacity:0.23529412"
         id="stop4766" />
      <stop
         offset="0.97222221"
         style="stop-color:#ffffff;stop-opacity:0.15686275"
         id="stop4768" />
      <stop
         offset="1"
         style="stop-color:#ffffff;stop-opacity:0.39215687"
         id="stop4770" />
    </linearGradient>
    <linearGradient
       gradientTransform="matrix(0.92592593,0,0,1.5263158,1.7777778,-23.421053)"
       gradientUnits="userSpaceOnUse"
       xlink:href="#linearGradient2867-449-88-871-390-598-476-591-434-148-57-177-3-8-1"
       id="linearGradient4393"
       y2="35"
       x2="46.68"
       y1="35"
       x1="-5.0010252" />
    <linearGradient
       id="linearGradient3254-3-182-8-5">
      <stop
         offset="0"
         style="stop-color:#ffffff;stop-opacity:1"
         id="stop4663-8-7" />
      <stop
         offset="1"
         style="stop-color:#ffffff;stop-opacity:0"
         id="stop4665-7-6" />
    </linearGradient>
    <linearGradient
       gradientUnits="userSpaceOnUse"
       xlink:href="#linearGradient4762"
       id="linearGradient4760"
       y2="43"
       x2="30"
       y1="7.3077302"
       x1="30" />
    <linearGradient
       spreadMethod="reflect"
       gradientTransform="matrix(0.1783638,0,0,0.1558618,28.646957,19.509417)"
       gradientUnits="userSpaceOnUse"
       xlink:href="#linearGradient2793-2-0-669-94-2"
       id="linearGradient3457-7-6"
       y2="-93.091553"
       x2="-48.479328"
       y1="-93.091553"
       x1="-20.446733" />
    <linearGradient
       id="linearGradient2793-2-0-669-94-2">
      <stop
         offset="0"
         style="stop-color:#b4b4b4;stop-opacity:1"
         id="stop4681-3-1" />
      <stop
         offset="1"
         style="stop-color:#ffffff;stop-opacity:1"
         id="stop4683-67-4" />
    </linearGradient>
    <linearGradient
       spreadMethod="reflect"
       gradientTransform="matrix(0.61425314,0,0,0.1558618,40.07214,19.732487)"
       gradientUnits="userSpaceOnUse"
       xlink:href="#linearGradient5118"
       id="linearGradient5066-8"
       y2="-93.091553"
       x2="-45.761551"
       y1="-93.091553"
       x1="-17.12093" />
    <radialGradient
       gradientTransform="matrix(1,0,0,0.42857143,0,4.2857143)"
       gradientUnits="userSpaceOnUse"
       xlink:href="#linearGradient5126"
       id="radialGradient5132"
       fy="7.5"
       fx="16.5"
       r="3.5"
       cy="7.5"
       cx="16.5" />
    <linearGradient
       id="linearGradient3820-7-2-1-2-6">
      <stop
         offset="0"
         style="stop-color:#3d3d3d;stop-opacity:1"
         id="stop3822-2-6-3-3-7" />
      <stop
         offset="0.5"
         style="stop-color:#686868;stop-opacity:0.49803922"
         id="stop3864-8-7-7-9-1" />
      <stop
         offset="1"
         style="stop-color:#686868;stop-opacity:0"
         id="stop3824-1-2-5-0-3" />
    </linearGradient>
    <radialGradient
       gradientTransform="matrix(0.2549024,0,0,0.07169133,-1.275361,29.153187)"
       gradientUnits="userSpaceOnUse"
       xlink:href="#linearGradient3820-7-2-1-2-6"
       id="radialGradient5362"
       fy="186.17059"
       fx="99.157013"
       r="62.769119"
       cy="186.17059"
       cx="99.157013" />
    <linearGradient
       gradientTransform="matrix(1.4666658,0,0,2.0811612,-6.0666553,-30.333874)"
       gradientUnits="userSpaceOnUse"
       xlink:href="#linearGradient3254-3-182-8-5"
       id="linearGradient5508"
       y2="35.717499"
       x2="17.77273"
       y1="17.458462"
       x1="13.681819" />
    <linearGradient
       gradientTransform="matrix(1.4666658,0,0,2.0811612,-6.0666553,-30.333874)"
       gradientUnits="userSpaceOnUse"
       xlink:href="#linearGradient3254-3-182-8-5"
       id="linearGradient5510"
       y2="35.717499"
       x2="27.31819"
       y1="17.458462"
       x1="25.272734" />
    <linearGradient
       id="linearGradient2867-449-88-871-390-598-476-591-434-148-57-177-3-8-1">
      <stop
         id="stop3750-8-9-7"
         style="stop-color:#90dbec;stop-opacity:1"
         offset="0" />
      <stop
         id="stop3752-3-2-4"
         style="stop-color:#42baea;stop-opacity:1"
         offset="0.26238" />
      <stop
         id="stop3754-7-2-4"
         style="stop-color:#3689e6;stop-opacity:1"
         offset="0.704952" />
      <stop
         id="stop3756-9-3-7"
         style="stop-color:#2b63a0;stop-opacity:1"
         offset="1" />
    </linearGradient>
  </defs>
  <path
     style="fill:url(#radialGradient5362);fill-opacity:1;stroke:none"
     id="path3818-0-5"
     d="M 40,42.5 A 16,4.5 0 0 1 7.9999998,42.5 16,4.5 0 1 1 40,42.5 Z" />
  <rect
     style="color:#000000;display:inline;overflow:visible;visibility:visible;fill:url(#linearGradient4393);fill-opacity:1;fill-rule:nonzero;stroke:none;stroke-width:1;marker:none;enable-background:accumulate"
     id="rect3268-0-1"
     y="15.5"
     x="11.5"
     ry="1.5000002"
     rx="13.5"
     height="29"
     width="25" />
  <path
     style="color:#000000;display:inline;overflow:visible;visibility:visible;opacity:0.5;fill:none;fill-opacity:0;stroke:#00537d;stroke-width:1;stroke-linecap:butt;stroke-linejoin:round;stroke-miterlimit:4;stroke-dasharray:none;stroke-dashoffset:0;stroke-opacity:1;marker:none;enable-background:accumulate"
     id="rect3268-0"
     d="m 36.5,17 c 0,-0.831 -5.575,-1.5 -12.5,-1.5 -6.925,0 -12.5,0.669 -12.5,1.5" />
  <path
     style="color:#000000;display:inline;overflow:visible;visibility:visible;fill:url(#linearGradient5066-8);fill-opacity:1;fill-rule:nonzero;stroke:none;stroke-width:1;marker:none;enable-background:accumulate"
     id="rect3268-6-4"
     d="M 24,5.5 C 17.075,5.5 11.5,6.169 11.5,7 v 10 c 0,-0.831 5.575,-1.5 12.5,-1.5 6.925,0 12.5,0.669 12.5,1.5 V 7 C 36.5,6.169 30.925,5.5 24,5.5 Z" />
  <path
     style="color:#000000;display:block;overflow:visible;visibility:visible;opacity:0.3;fill:none;stroke:#000000;stroke-width:1;stroke-linecap:butt;stroke-linejoin:miter;stroke-miterlimit:7;stroke-dasharray:none;stroke-dashoffset:0;stroke-opacity:1;marker:none;enable-background:accumulate"
     id="rect3268-6"
     d="m 11.5,17 c 0,-0.831 5.575,-1.5 12.5,-1.5 6.925,0 12.5,0.669 12.5,1.5" />
  <path
     style="color:#000000;display:inline;overflow:visible;visibility:visible;fill:url(#linearGradient3457-7-6);fill-opacity:1;fill-rule:nonzero;stroke:none;stroke-width:1;marker:none;enable-background:accumulate"
     id="rect3268-3-9"
     d="M 27.5,5.5625 V 4.34375 C 27.5,3.8749017 25.939,3.5 24,3.5 22.061,3.5 20.5,3.8749017 20.5,4.34375 V 5.5625" />
  <path
     style="color:#000000;display:block;overflow:visible;visibility:visible;opacity:0.3;fill:none;stroke:#000000;stroke-width:0.99999994;stroke-linecap:butt;stroke-linejoin:miter;stroke-miterlimit:7;stroke-dasharray:none;stroke-dashoffset:0;stroke-opacity:1;marker:none;enable-background:accumulate"
     id="rect3268-3"
     d="M 27.5,5.5625 V 4.34375 C 27.5,3.8749017 25.939,3.5 24,3.5 22.061,3.5 20.5,3.8749017 20.5,4.34375 V 5.5625" />
  <path
     style="color:#000000;display:block;overflow:visible;visibility:visible;opacity:0.8;fill:none;stroke:url(#linearGradient4760);stroke-width:1.04257202;stroke-linecap:butt;stroke-linejoin:miter;stroke-miterlimit:7;stroke-dasharray:none;stroke-dashoffset:0;stroke-opacity:1;marker:none;enable-background:accumulate"
     id="path4752"
     transform="matrix(0.92,0,0,1,1.92,0)"
     d="m 24,6.5 c -3.709888,0 -7.052717,0.1725241 -9.4375,0.4375 -1.192392,0.132488 -2.155165,0.2807189 -2.75,0.4375 C 11.64892,7.418115 11.599316,7.431865 11.5,7.46875 v 35.0625 c 0.09932,0.03688 0.14892,0.05063 0.3125,0.09375 0.594835,0.156781 1.557608,0.305012 2.75,0.4375 C 16.947283,43.327476 20.290112,43.5 24,43.5 c 3.709888,0 7.052717,-0.172524 9.4375,-0.4375 1.192392,-0.132488 2.155165,-0.280719 2.75,-0.4375 0.16358,-0.04312 0.213184,-0.05687 0.3125,-0.09375 V 7.46875 C 36.400684,7.4318648 36.35108,7.4181148 36.1875,7.375 35.592665,7.2182189 34.629892,7.069988 33.4375,6.9375 31.052717,6.6725241 27.709888,6.5 24,6.5 Z" />
  <rect
     style="color:#000000;display:block;overflow:visible;visibility:visible;opacity:0.3;fill:none;stroke:#000000;stroke-width:1;stroke-linecap:butt;stroke-linejoin:miter;stroke-miterlimit:7;stroke-dasharray:none;stroke-dashoffset:0;stroke-opacity:1;marker:none;enable-background:accumulate"
     id="rect3268"
     y="5.5"
     x="11.5"
     ry="1.5"
     rx="13.5"
     height="39"
     width="25" />
  <path
     style="display:inline;overflow:visible;visibility:visible;opacity:0.15;fill:url(#linearGradient5508);fill-opacity:1;fill-rule:nonzero;stroke:none;stroke-width:1;marker:none"
     id="path5194"
     d="M 20,5.59375 C 16.787316,5.7149057 15.492733,5.9541603 14,6.3125 v 37.375 c 1.492733,0.35834 2.787316,0.597594 6,0.71875 z" />
  <path
     style="display:inline;overflow:visible;visibility:visible;opacity:0.05;fill:url(#linearGradient5510);fill-opacity:1;fill-rule:nonzero;stroke:none;stroke-width:1;marker:none"
     id="rect3244"
     d="m 31,5.875 v 38.25 c 1.136673,-0.123654 2.304289,-0.27049 3,-0.4375 V 6.3125 C 33.304289,6.1454904 32.136673,5.9986542 31,5.875 Z" />
  <path
     style="color:#000000;display:inline;overflow:visible;visibility:visible;opacity:0.2;fill:url(#radialGradient5132);fill-opacity:1;fill-rule:nonzero;stroke:none;stroke-width:1;marker:none;enable-background:accumulate"
     id="path5124"
     transform="matrix(0.90865815,0,0,2.0656555,1.5071413,-8.7383745)"
     d="m 20,7.5 a 3.5,1.5 0 1 1 -7,0 3.5,1.5 0 1 1 7,0 z" />
  <path
     style="color:#000000;display:block;overflow:visible;visibility:visible;opacity:0.2;fill:none;stroke:#ffffff;stroke-width:0.99999994;stroke-linecap:butt;stroke-linejoin:miter;stroke-miterlimit:7;stroke-dasharray:none;stroke-dashoffset:0;stroke-opacity:1;marker:none;enable-background:accumulate"
     id="rect3268-0-7"
     d="M 35.969003,17.564443 C 34.420917,16.947168 29.661637,16.5 24,16.5 c -5.64267,0 -10.38902,0.444177 -11.953337,1.058245" />
  <path
     style="color:#000000;display:block;overflow:visible;visibility:visible;opacity:0.2;fill:none;stroke:#ffffff;stroke-width:0.99999994;stroke-linecap:butt;stroke-linejoin:miter;stroke-miterlimit:7;stroke-dasharray:none;stroke-dashoffset:0;stroke-opacity:1;marker:none;enable-background:accumulate"
     id="rect3268-0-7-4"
     d="M 35.969003,15.564443 C 34.420917,14.947168 29.661637,14.5 24,14.5 c -5.64267,0 -10.38902,0.444177 -11.953337,1.058245" />
</svg>

<svg xmlns="http://www.w3.org/2000/svg" xmlns:xlink="http://www.w3.org/1999/xlink" viewBox="0 0 48 48" version="1"><defs><linearGradient id="e"><stop offset="0" stop-color="#fff"/><stop offset="1" stop-color="#fff" stop-opacity="0"/></linearGradient><linearGradient id="d"><stop offset="0" stop-color="#9d9d9d"/><stop offset="1" stop-color="#fff"/></linearGradient><linearGradient id="b"><stop offset="0" stop-color="#fff"/><stop offset=".028" stop-color="#fff" stop-opacity=".235"/><stop offset=".972" stop-color="#fff" stop-opacity=".157"/><stop offset="1" stop-color="#fff" stop-opacity=".392"/></linearGradient><linearGradient gradientTransform="matrix(.92593 0 0 1.52632 1.778 -23.42)" gradientUnits="userSpaceOnUse" xlink:href="#a" id="i" y2="35" x2="46.68" y1="35" x1="-5.001"/><linearGradient id="g"><stop offset="0" stop-color="#fff"/><stop offset="1" stop-color="#fff" stop-opacity="0"/></linearGradient><linearGradient gradientUnits="userSpaceOnUse" xlink:href="#b" id="l" y2="43" x2="30" y1="7.308" x1="30"/><linearGradient spreadMethod="reflect" gradientTransform="matrix(.17836 0 0 .15586 28.647 19.51)" gradientUnits="userSpaceOnUse" xlink:href="#c" id="k" y2="-93.092" x2="-48.479" y1="-93.092" x1="-20.447"/><linearGradient id="c"><stop offset="0" stop-color="#b4b4b4"/><stop offset="1" stop-color="#fff"/></linearGradient><linearGradient spreadMethod="reflect" gradientTransform="matrix(.61425 0 0 .15586 40.072 19.732)" gradientUnits="userSpaceOnUse" xlink:href="#d" id="j" y2="-93.092" x2="-45.762" y1="-93.092" x1="-17.121"/><radialGradient gradientTransform="matrix(1 0 0 .42857 0 4.286)" gradientUnits="userSpaceOnUse" xlink:href="#e" id="o" fy="7.5" fx="16.5" r="3.5" cy="7.5" cx="16.5"/><linearGradient id="f"><stop offset="0" stop-color="#3d3d3d"/><stop offset=".5" stop-color="#686868" stop-opacity=".498"/><stop offset="1" stop-color="#686868" stop-opacity="0"/></linearGradient><radialGradient gradientTransform="matrix(.255 0 0 .0717 -1.275 29.153)" gradientUnits="userSpaceOnUse" xlink:href="#f" id="h" fy="186.171" fx="99.157" r="62.769" cy="186.171" cx="99.157"/><linearGradient gradientTransform="matrix(1.46667 0 0 2.08116 -6.067 -30.334)" gradientUnits="userSpaceOnUse" xlink:href="#g" id="m" y2="35.717" x2="17.773" y1="17.458" x1="13.682"/><linearGradient gradientTransform="matrix(1.46667 0 0 2.08116 -6.067 -30.334)" gradientUnits="userSpaceOnUse" xlink:href="#g" id="n" y2="35.717" x2="27.318" y1="17.458" x1="25.273"/><linearGradient id="a"><stop offset="0" stop-color="#90dbec"/><stop offset=".262" stop-color="#42baea"/><stop offset=".705" stop-color="#3689e6"/><stop offset="1" stop-color="#2b63a0"/></linearGradient></defs><path d="M40 42.5a16 4.5 0 0 1-32 0 16 4.5 0 1 1 32 0z" fill="url(#h)"/><rect y="15.5" x="11.5" ry="1.5" rx="13.5" height="29" width="25" color="#000" overflow="visible" fill="url(#i)"/><path d="M36.5 17c0-.83-5.575-1.5-12.5-1.5s-12.5.67-12.5 1.5" color="#000" overflow="visible" opacity=".5" fill="none" stroke="#00537d" stroke-linejoin="round"/><path d="M24 5.5c-6.925 0-12.5.67-12.5 1.5v10c0-.83 5.575-1.5 12.5-1.5s12.5.67 12.5 1.5V7c0-.83-5.575-1.5-12.5-1.5z" color="#000" overflow="visible" fill="url(#j)"/><path d="M11.5 17c0-.83 5.575-1.5 12.5-1.5s12.5.67 12.5 1.5" color="#000" display="block" overflow="visible" opacity=".3" fill="none" stroke="#000" stroke-miterlimit="7"/><path d="M27.5 5.563v-1.22c0-.468-1.56-.843-3.5-.843s-3.5.375-3.5.844v1.218" color="#000" overflow="visible" fill="url(#k)"/><path d="M27.5 5.563v-1.22c0-.468-1.56-.843-3.5-.843s-3.5.375-3.5.844v1.218" color="#000" display="block" overflow="visible" opacity=".3" fill="none" stroke="#000" stroke-miterlimit="7"/><path transform="matrix(.92 0 0 1 1.92 0)" d="M24 6.5c-3.71 0-7.053.173-9.438.438-1.192.132-2.155.28-2.75.437a2.78 2.78 0 0 0-.312.094v35.06c.1.036.15.05.313.093.594.157 1.557.305 2.75.438 2.384.265 5.727.438 9.437.438 3.71 0 7.053-.174 9.438-.44 1.192-.13 2.155-.28 2.75-.436.163-.043.213-.057.312-.094V7.47a2.78 2.78 0 0 0-.313-.095c-.594-.157-1.557-.305-2.75-.438C31.053 6.673 27.71 6.5 24 6.5z" color="#000" display="block" overflow="visible" opacity=".8" fill="none" stroke="url(#l)" stroke-width="1.043" stroke-miterlimit="7"/><rect y="5.5" x="11.5" ry="1.5" rx="13.5" height="39" width="25" color="#000" display="block" overflow="visible" opacity=".3" fill="none" stroke="#000" stroke-miterlimit="7"/><path d="M20 5.594c-3.213.12-4.507.36-6 .718v37.376c1.493.358 2.787.597 6 .718z" overflow="visible" opacity=".15" fill="url(#m)"/><path d="M31 5.875v38.25c1.137-.124 2.304-.27 3-.438V6.313c-.696-.168-1.863-.314-3-.438z" overflow="visible" opacity=".05" fill="url(#n)"/><path transform="matrix(.90866 0 0 2.06566 1.507 -8.738)" d="M20 7.5a3.5 1.5 0 1 1-7 0 3.5 1.5 0 1 1 7 0z" color="#000" overflow="visible" opacity=".2" fill="url(#o)"/><path d="M35.97 17.564C34.42 16.947 29.66 16.5 24 16.5c-5.643 0-10.39.444-11.953 1.058m23.923-1.994C34.42 14.947 29.66 14.5 24 14.5c-5.643 0-10.39.444-11.953 1.058" color="#000" display="block" overflow="visible" opacity=".2" fill="none" stroke="#fff" stroke-miterlimit="7"/></svg>
